X: 59
T:Cinio'r Siryf
T:The Sheriff's Dinner
M:2/4
L:1/16
Q:100
S:Cadw Twmpath Collection
R:Polka
A:Wales
Z:brian_martin12345@yahoo.com
K:G
gGBd ed^cd|gGBd =cBAd|gGBd gdgb|c'ded g2G2:||
e^ded eE^GB|cBcB cBA2|=d^cdc dDFA|=cBAd G2g2:||
